libs/icons/src/svg/connect.svg

<svg width="16" height="16" viewBox="0 0 16 16" fill="none" xmlns="http://www.w3.org/2000/svg">
<path fill-rule="evenodd" clip-rule="evenodd" d="M1.33333 4.66666C1.33333 3.56218 2.22886 2.66666 3.33333 2.66666H9.33333C10.4378 2.66666 11.3333 3.56218 11.3333 4.66666V7.33333C11.3333 8.4378 10.4378 9.33333 9.33333 9.33333H6.66667C6.29848 9.33333 6 9.6318 6 9.99999C6 10.3682 6.29848 10.6667 6.66667 10.6667H9.33333C11.1742 10.6667 12.6667 9.17418 12.6667 7.33333V4.66666C12.6667 2.8258 11.1742 1.33333 9.33333 1.33333H3.33333C1.49248 1.33333 0 2.8258 0 4.66666V7.33333C0 8.32919 0.437542 9.22404 1.129 9.83396C1.40512 10.0775 1.8264 10.0511 2.06996 9.775C2.31352 9.49887 2.28712 9.07759 2.011 8.83403C1.59446 8.46661 1.33333 7.9308 1.33333 7.33333V4.66666ZM4.66667 8.66666C4.66667 7.56218 5.56219 6.66666 6.66667 6.66666H9.33333C9.70152 6.66666 10 6.36818 10 5.99999C10 5.6318 9.70152 5.33333 9.33333 5.33333H6.66667C4.82581 5.33333 3.33333 6.8258 3.33333 8.66666V11.3333C3.33333 13.1742 4.82581 14.6667 6.66667 14.6667H12.6667C14.5075 14.6667 16 13.1742 16 11.3333V8.66666C16 7.6708 15.5625 6.77594 14.871 6.16603C14.5949 5.92247 14.1736 5.94887 13.93 6.22499C13.6865 6.50111 13.7129 6.9224 13.989 7.16596C14.4055 7.53338 14.6667 8.06919 14.6667 8.66666V11.3333C14.6667 12.4378 13.7711 13.3333 12.6667 13.3333H6.66667C5.56219 13.3333 4.66667 12.4378 4.66667 11.3333V8.66666Z" fill="#202327"/>
</svg>

<svg xmlns="http://www.w3.org/2000/svg" viewBox="0 0 16 16" class="sageicon"><path fill-rule="evenodd" d="M1.333 4.667a2 2 0 0 1 2-2h6a2 2 0 0 1 2 2v2.666a2 2 0 0 1-2 2H6.667a.667.667 0 1 0 0 1.334h2.666a3.334 3.334 0 0 0 3.334-3.334V4.667a3.333 3.333 0 0 0-3.334-3.334h-6A3.333 3.333 0 0 0 0 4.667v2.666c0 .996.438 1.891 1.129 2.501a.667.667 0 0 0 .882-1 1.994 1.994 0 0 1-.678-1.5V4.666Zm3.334 4a2 2 0 0 1 2-2h2.666a.667.667 0 0 0 0-1.334H6.667a3.333 3.333 0 0 0-3.334 3.334v2.666a3.333 3.333 0 0 0 3.334 3.334h6A3.333 3.333 0 0 0 16 11.333V8.667c0-.996-.438-1.891-1.129-2.501a.667.667 0 0 0-.882 1c.416.367.678.903.678 1.5v2.667a2 2 0 0 1-2 2h-6a2 2 0 0 1-2-2V8.667Z"/></svg>
